X:88
T:The Rambling Sailor - Hannaford
C:Taken down from R. Hannaford by H.Fl.S.
%%VWML:SBG-1-1-417-1
F:http://www.vwml.org/record/SBG/1/1/417
Z:Original Sibleius Transcription by Martin and Shan Graebe
L:1/4
M:4/4
I:linebreak $
K:C
E | C G F D | C C c B/A/ | G G/A/ F D | C3/2 B,/ C :| E/F/ | G G c c | B G c c/B/ |$ A A G E | 
"^sung both ways" [EB] [DA] [CG] E/D/ | C G F D | C C c B/A/ | G G/A/ F D | C3/2 B,/ C  |] 



